img/svg/twitter-x.svg

<svg width="24" height="25" viewBox="0 0 24 25" fill="none" xmlns="http://www.w3.org/2000/svg">
<path d="M18.9 1.14844H22.581L14.541 10.3614L24 22.8984H16.5945L10.794 15.2934L4.1565 22.8984H0.474L9.0735 13.0434L0 1.14844H7.5945L12.837 8.09794L18.9 1.14844ZM17.61 20.6904H19.65L6.4845 3.24094H4.2975L17.61 20.6904Z" fill="black"/>
</svg>

<?xml version="1.0" encoding="utf-8"?><svg width="24" height="25" fill="none" xmlns="http://www.w3.org/2000/svg" viewBox="0 0 24 25"><path d="M18.9 1.148h3.681l-8.04 9.213L24 22.898h-7.405l-5.801-7.605-6.638 7.605H.475l8.6-9.855L0 1.148h7.595l5.242 6.95 6.063-6.95ZM17.61 20.69h2.04L6.485 3.24H4.296L17.61 20.69Z" fill="#000"/></svg>
